x-pack/solutions/security/plugins/cloud_security_posture/public/assets/illustrations/vulnerabilities_vendors.svg

<svg width="376" height="209" viewBox="0 0 324 209" fill="none" xmlns="http://www.w3.org/2000/svg">
    <rect x="27.8813" y="65" width="78" height="78" rx="11.5153" fill="#F1F4FA"/>
    <path d="M86.5415 86.0403C86.6977 86.5869 87.2053 88.5784 87.7129 90.4526L91.6958 105.33C92.2034 107.204 92.75 109.195 92.8672 109.742C93.0624 110.562 92.8281 111.421 92.2424 112.007L89.0015 115.248L78.1463 126.103C76.7797 127.548 75.374 128.992 74.9054 129.344C74.2806 129.89 73.4216 130.125 72.6407 129.969L68.2283 128.797L53.3513 124.814L48.9389 123.643C48.5484 123.526 48.197 123.331 47.8846 123.018C47.5722 122.745 47.377 122.354 47.2599 121.964C47.1037 121.417 46.5961 119.426 46.0884 117.552L42.1056 102.674L40.9342 98.2621L41.5199 98.0669L42.1056 97.9107C42.2618 98.4574 42.7694 100.449 43.277 102.323L47.2599 117.239C47.7675 119.113 48.3141 121.105 48.4313 121.651C48.5094 121.847 48.6265 122.003 48.7437 122.159C48.8999 122.315 49.056 122.432 49.2513 122.471L53.6636 123.643L68.5407 127.626L72.953 128.797C73.3435 128.875 73.773 128.758 74.0854 128.485L77.3263 125.244L88.2206 114.35L91.4615 111.109C91.7348 110.796 91.8129 110.367 91.7739 109.976C91.6177 109.43 91.1101 107.438 90.6024 105.564L86.5806 90.765C86.0729 88.8907 85.5263 86.8993 85.4091 86.3527C85.331 86.1574 85.2139 86.0012 85.0968 85.845C84.9406 85.6889 84.7844 85.5717 84.5891 85.5327L80.1768 84.3222L65.3388 80.3394L60.8874 79.168C60.4969 79.0899 60.0674 79.207 59.755 79.4803L56.5141 82.7213L45.6199 93.6155L42.3789 96.8564C42.1056 97.1688 41.9885 97.5983 42.0666 97.9888L41.4809 98.1059L40.8951 98.2621C40.6999 97.4421 40.9342 96.5831 41.5199 95.9974L44.7608 92.7564L55.655 81.9013L58.896 78.6603C59.5207 78.0746 60.3798 77.8794 61.1607 78.0356L65.5731 79.207L80.4501 83.1898L84.8625 84.3612C85.253 84.4784 85.6044 84.7127 85.9168 84.986C86.2291 85.2984 86.4244 85.6498 86.5415 86.0403Z" fill="#98A2B3"/>
    <path d="M67.8769 82.0965L71.1178 83.9707L82.1291 90.3355L85.4091 92.2097C85.9948 92.5612 86.3463 93.1859 86.3853 93.8888V97.6373V114.115C86.3463 114.818 85.9948 115.443 85.4091 115.794L82.1682 117.669L71.1178 124.033L67.8769 125.908C67.5645 126.064 67.2521 126.142 66.9007 126.142C66.5492 126.142 66.2369 126.064 65.9245 125.908L62.6836 124.033L51.6331 117.669L48.3922 115.794L48.6265 115.365L48.8608 114.935L52.1017 116.81L63.1131 123.174L66.3931 125.049C66.5492 125.127 66.7054 125.166 66.8616 125.166C67.0178 125.166 67.213 125.127 67.3692 125.049L70.6102 123.174L81.6215 116.81L84.8625 114.935C85.1358 114.74 85.331 114.428 85.4091 114.076V110.328V93.8497C85.3701 93.4983 85.1748 93.1859 84.9015 93.0297L81.6606 91.1555L70.6492 84.7907L67.4083 82.9165C67.2521 82.8384 67.0959 82.7993 66.9007 82.7993C66.7445 82.7993 66.5492 82.8384 66.4321 82.9165L63.1521 84.7907L52.1408 91.1555L48.8998 93.0297C48.6265 93.225 48.4313 93.5373 48.3922 93.8888V97.6373V114.115C48.4313 114.467 48.5875 114.74 48.8998 114.974L48.6655 115.404L48.4313 115.833C47.8456 115.482 47.4941 114.857 47.4551 114.154C47.4551 113.686 47.4551 112.007 47.4551 110.406V93.9278C47.4941 93.225 47.8456 92.6002 48.4313 92.2488L51.6722 90.3745L62.7226 84.0098L65.9635 82.1355C66.2759 81.9793 66.5883 81.9012 66.9397 81.9012C67.2521 81.8622 67.6035 81.9403 67.8769 82.0965Z" fill="#98A2B3"/>
    <path d="M53.7419 89.4765L56.9828 88.6175L67.9161 85.6889L71.157 84.8299C71.7427 84.7128 72.3675 84.869 72.8361 85.2985L75.2179 87.6804L83.2227 95.6851L85.6045 98.067C86.0341 98.4965 86.1903 99.1603 86.0341 99.746C85.9169 100.136 85.5265 101.62 85.175 102.987L82.2465 113.92C81.856 115.287 81.4655 116.81 81.3874 117.161C81.3093 117.434 81.1531 117.708 80.9189 117.942C80.7236 118.176 80.4503 118.333 80.1379 118.411L76.897 119.27L65.9637 122.198L62.7228 123.057L62.6056 122.667L62.4885 122.237L65.7294 121.378L76.6627 118.45L79.9036 117.591C80.0598 117.552 80.177 117.473 80.2941 117.356C80.4112 117.239 80.4893 117.122 80.5284 116.966L81.3874 113.725L84.316 102.792C84.7065 101.425 85.0969 99.9412 85.175 99.5508C85.2141 99.2384 85.136 98.9651 84.9407 98.7308L82.5979 96.3489L74.5932 88.3442L72.2113 85.9623C71.977 85.767 71.6646 85.6889 71.3913 85.728L68.1504 86.587L57.2171 89.5546L53.9762 90.4137C53.82 90.4527 53.7028 90.5308 53.5857 90.648C53.4686 90.7651 53.3905 90.8822 53.3514 91.0384C53.2343 91.4289 52.8438 92.9127 52.4924 94.2794L49.5638 105.174C49.2124 106.54 48.8219 108.024 48.7048 108.415C48.6657 108.727 48.7438 109 48.9391 109.235L51.321 111.616L59.3257 119.621L61.7076 122.003C61.9418 122.198 62.2542 122.276 62.5276 122.237L62.6447 122.667L62.7618 123.096C62.1761 123.213 61.5514 123.057 61.0828 122.628L58.7009 120.246L50.6572 112.124L48.2753 109.742C47.8457 109.313 47.6896 108.688 47.8067 108.063C47.9238 107.673 48.3143 106.189 48.6657 104.822L51.5943 93.8889L52.4533 90.648C52.5314 90.3746 52.6876 90.1013 52.9219 89.867C53.1952 89.7108 53.4686 89.5546 53.7419 89.4765Z" fill="#98A2B3"/>
    <path d="M50.8519 120.09C41.9882 111.226 41.9882 96.8564 50.8519 87.9536C59.7157 79.0508 74.0851 79.0899 82.9879 87.9536C91.8907 96.8174 91.8517 111.187 82.9879 120.09C74.1241 128.953 59.7547 128.953 50.8519 120.09ZM82.246 119.348C90.6802 110.874 90.6412 97.1688 82.1679 88.7736C73.6946 80.3394 59.989 80.3784 51.5938 88.8517C43.1986 97.2859 43.1986 110.953 51.6329 119.387C60.0671 127.86 73.7727 127.821 82.246 119.348C82.246 119.387 82.246 119.387 82.246 119.348Z" fill="#98A2B3"/>
    <path d="M67.6426 87.5632L70.0635 88.9689L78.2244 93.6545L80.6454 95.0603C81.0749 95.3336 81.3482 95.8022 81.3482 96.3098V99.0821V111.304C81.3092 111.812 81.0749 112.28 80.6454 112.553L78.2244 113.92L70.0635 118.645L67.6426 120.051C67.4083 120.168 67.174 120.246 66.9397 120.246C66.7054 120.246 66.4321 120.168 66.2369 120.051L63.8159 118.645L55.655 113.92L53.2341 112.514L53.4293 112.202L53.6246 111.89L56.0065 113.295L64.1674 118.02L66.5883 119.426C66.7054 119.504 66.8226 119.504 66.9397 119.504C67.0569 119.504 67.174 119.504 67.2912 119.426L69.7121 118.02L77.873 113.295L80.2939 111.89C80.4892 111.733 80.6454 111.538 80.6454 111.265V108.493V96.2707C80.6063 96.0364 80.4892 95.8022 80.2939 95.646L77.873 94.2403L69.7511 89.5546L67.3302 88.1489C67.2131 88.1098 67.0959 88.0708 66.9788 88.0708C66.8616 88.0708 66.7445 88.1098 66.6273 88.1489L64.2064 89.5546L56.0455 94.2403L53.6246 95.646C53.4293 95.8022 53.2731 96.0364 53.2731 96.2707V99.0431V111.265C53.3122 111.499 53.4293 111.733 53.6246 111.89L53.4293 112.202L53.2341 112.514C52.8046 112.241 52.5312 111.773 52.5312 111.265V108.454V96.2317C52.5312 95.7241 52.8046 95.2555 53.2341 94.9822L55.655 93.5765L63.8159 88.8908L66.2369 87.4851C66.4712 87.3679 66.7054 87.2898 66.9397 87.2898C67.174 87.407 67.4083 87.446 67.6426 87.5632Z" fill="#98A2B3"/>
    <path d="M55.0303 115.677C48.4704 109.117 48.4704 98.4574 55.0303 91.8975C61.5903 85.3375 72.2502 85.3375 78.8102 91.8975C85.3701 98.4574 85.3701 109.117 78.8102 115.677C72.2502 122.276 61.5903 122.276 55.0303 115.677ZM78.2635 115.17C84.5111 108.922 84.472 98.7698 78.2245 92.5222C71.9769 86.2747 61.8246 86.3137 55.577 92.5613C49.3685 98.8089 49.3685 108.922 55.577 115.17C61.8246 121.417 71.9769 121.456 78.2635 115.17Z" fill="#98A2B3"/>
    <rect x="110.958" y="52.9577" width="102.085" height="102.085" rx="15.3127" fill="#F1F4FA"/>
    <path d="M164.146 107.69C164.227 107.854 164.47 107.854 164.47 107.69L170.148 92.7778C170.392 92.0404 171.122 91.6307 171.852 91.6307H177.124C178.098 91.6307 178.99 92.4501 178.99 93.4333C178.99 93.6791 178.99 93.843 178.909 94.0888L166.092 128.912C166.092 128.994 165.687 129.322 165.362 129.568C165.281 129.65 165.119 129.65 164.957 129.65C164.47 129.486 163.983 129.076 163.821 128.585L157.007 111.951C156.764 111.46 156.196 111.214 155.709 111.46C155.547 111.542 155.304 111.705 155.223 111.951L146.624 129.24C146.543 129.322 146.462 129.404 146.381 129.322C146.3 129.322 146.3 129.24 146.3 129.24L132.915 94.0069C132.591 93.0236 132.996 91.9584 133.97 91.6307C134.213 91.5487 134.375 91.4668 134.619 91.4668H140.378C141.108 91.4668 141.838 91.9584 142.082 92.6139L147.76 107.609C147.841 107.772 148.084 107.772 148.084 107.609L155.223 91.9584C155.466 91.4668 156.034 91.221 156.52 91.4668C156.764 91.5487 156.926 91.7126 157.007 91.9584L164.146 107.69ZM186.995 77.3746C186.914 77.1288 186.508 77.1288 186.427 77.3746C186.103 79.0134 185.373 81.4715 184.075 82.7825C182.777 84.0935 180.343 84.8309 178.721 85.1587C178.478 85.2406 178.478 85.6503 178.721 85.7323C180.343 86.06 182.777 86.7974 184.075 88.1084C185.778 89.8291 186.346 92.2053 186.59 93.5983C186.59 93.6802 186.914 93.6802 186.914 93.5983C187.238 92.1234 187.887 89.5014 189.266 88.1084C190.564 86.7974 192.998 86.06 194.62 85.7323C194.864 85.6503 194.864 85.2406 194.62 85.1587C192.998 84.8309 190.564 84.0935 189.266 82.7825C188.05 81.4715 187.32 79.0134 186.995 77.3746Z" fill="#325FE8"/>
    <rect x="218.119" y="65" width="78" height="78" rx="11.5153" fill="#F1F4FA"/>
    <g style="mix-blend-mode:luminosity">
        <path d="M257.113 77.8393C271.114 77.8393 278.153 85.4482 278.153 85.4482C278.153 85.4482 278.959 91.0811 278.444 102.42C277.669 119.552 257.117 129.839 257.115 129.839C257.115 129.839 236.564 119.549 235.787 102.42C235.274 91.0811 236.079 85.4482 236.079 85.4482C236.079 85.4482 243.112 77.8393 257.113 77.8393Z" fill="#98A2B3"/>
        <path d="M246.749 100.406C246.749 94.2368 251.399 89.2154 257.116 89.2154C262.832 89.2154 267.491 94.0968 267.491 100.096C267.491 104.887 263.565 108.827 260.538 110.853C261.712 111.555 264.304 112.294 266.785 112.531C270.408 109.59 272.616 105.048 272.616 100.096C272.616 91.1332 265.663 83.8393 257.114 83.8393C248.564 83.8393 241.616 91.1354 241.616 100.099C241.616 105.511 243.765 110.322 247.832 114.006C251.634 117.451 257.195 119.751 263.528 120.839C264.9 120.044 267.246 117.697 268.125 116.324C262.837 115.61 257.831 114.257 254.477 112.412C249.351 109.59 246.751 105.551 246.751 100.404" fill="#F1F4FA"/>
    </g>
</svg>

<svg xmlns="http://www.w3.org/2000/svg" width="376" height="209" fill="none" viewBox="0 0 324 209"><rect width="78" height="78" x="27.881" y="65" fill="#F1F4FA" rx="11.515"/><path fill="#98A2B3" d="M86.542 86.04c.156.547.663 2.538 1.17 4.413l3.984 14.877c.507 1.874 1.054 3.865 1.171 4.412a2.41 2.41 0 0 1-.625 2.265l-3.24 3.241-10.856 10.855c-1.366 1.445-2.772 2.889-3.24 3.241-.625.546-1.484.781-2.265.625l-4.413-1.172-14.877-3.983-4.412-1.171a2.44 2.44 0 0 1-1.054-.625c-.313-.273-.508-.664-.625-1.054-.156-.547-.664-2.538-1.172-4.412l-3.982-14.878-1.172-4.412.586-.195.586-.156c.156.546.663 2.538 1.171 4.412l3.983 14.916c.508 1.874 1.054 3.866 1.171 4.412.078.196.196.352.313.508.156.156.312.273.507.312l4.413 1.172 14.877 3.983 4.412 1.171c.39.078.82-.039 1.132-.312l3.241-3.241 10.895-10.894 3.24-3.241c.274-.313.352-.742.313-1.133-.156-.546-.664-2.538-1.172-4.412l-4.021-14.799c-.508-1.874-1.055-3.866-1.172-4.412-.078-.196-.195-.352-.312-.508-.156-.156-.313-.273-.508-.312l-4.412-1.21-14.838-3.984-4.452-1.171c-.39-.078-.82.039-1.132.312l-3.24 3.241L45.62 93.615l-3.241 3.241c-.273.313-.39.742-.312 1.133l-.586.117-.586.156a2.41 2.41 0 0 1 .625-2.265l3.24-3.24L55.656 81.9l3.241-3.24c.625-.586 1.484-.782 2.265-.625l4.412 1.171L80.45 83.19l4.412 1.171c.391.117.742.352 1.055.625.312.312.507.664.624 1.054"/><path fill="#98A2B3" d="m67.877 82.097 3.24 1.874 11.012 6.364 3.28 1.875c.586.351.937.976.976 1.679v20.226c-.039.703-.39 1.328-.976 1.679l-3.24 1.875-11.051 6.364-3.241 1.875a2.1 2.1 0 0 1-.976.234c-.352 0-.664-.078-.977-.234l-3.24-1.875-11.05-6.364-3.242-1.875.234-.429.235-.43 3.24 1.875 11.012 6.364 3.28 1.875q.234.117.469.117c.156 0 .351-.039.507-.117l3.241-1.875 11.011-6.364 3.242-1.875c.273-.195.468-.507.546-.859V93.85c-.039-.352-.234-.664-.508-.82l-3.24-1.874-11.012-6.365-3.24-1.874a1.1 1.1 0 0 0-.508-.118c-.156 0-.352.04-.469.117l-3.28 1.875-11.011 6.365L48.9 93.03a1.23 1.23 0 0 0-.508.859v20.226c.04.352.195.625.508.859l-.234.43-.235.429c-.585-.351-.937-.976-.976-1.679V93.928c.04-.703.39-1.328.976-1.68l3.241-1.874 11.05-6.364 3.241-1.875c.313-.156.625-.234.977-.234.312-.039.663.04.937.196"/><path fill="#98A2B3" d="m53.742 89.477 3.24-.86 10.934-2.928 3.241-.86a1.92 1.92 0 0 1 1.68.47l2.38 2.381 8.006 8.005 2.382 2.382c.43.43.585 1.093.43 1.679-.118.39-.508 1.874-.86 3.241l-2.928 10.933a85 85 0 0 0-.86 3.241 1.8 1.8 0 0 1-.468.781 1.46 1.46 0 0 1-.781.469l-3.241.859-10.933 2.928-3.241.859-.117-.39-.117-.43 3.24-.859 10.934-2.928 3.24-.859a.8.8 0 0 0 .391-.235.8.8 0 0 0 .234-.39l.86-3.241 2.928-10.933c.39-1.367.78-2.85.859-3.241a1.03 1.03 0 0 0-.234-.82l-2.343-2.382-8.005-8.005-2.382-2.382a1.07 1.07 0 0 0-.82-.234l-3.24.859-10.934 2.968-3.24.859a.8.8 0 0 0-.391.234.8.8 0 0 0-.235.39c-.117.39-.507 1.875-.859 3.241l-2.928 10.895c-.352 1.366-.742 2.85-.86 3.241q-.057.468.235.82l2.382 2.381 8.005 8.005 2.382 2.382c.234.195.546.273.82.234l.117.43.117.429a1.92 1.92 0 0 1-1.68-.468l-2.381-2.382-8.044-8.122-2.382-2.382c-.43-.429-.585-1.054-.468-1.679.117-.39.507-1.874.859-3.241l2.928-10.933.86-3.241c.077-.273.234-.547.468-.781.273-.156.547-.312.82-.39"/><path fill="#98A2B3" d="M50.852 120.09c-8.864-8.864-8.864-23.234 0-32.136s23.233-8.864 32.136 0c8.903 8.863 8.864 23.233 0 32.136-8.864 8.863-23.233 8.863-32.136 0m31.394-.742c8.434-8.474 8.395-22.18-.078-30.574-8.473-8.435-22.179-8.396-30.574.078-8.395 8.434-8.395 22.101.039 30.535 8.434 8.473 22.14 8.434 30.613-.039q0 .058 0 0"/><path fill="#98A2B3" d="m67.643 87.563 2.42 1.406 8.161 4.686 2.421 1.405c.43.274.703.742.703 1.25v14.994c-.039.508-.273.976-.703 1.249l-2.42 1.367-8.161 4.725-2.421 1.406c-.235.117-.469.195-.703.195-.235 0-.508-.078-.703-.195l-2.421-1.406-8.161-4.725-2.42-1.406.194-.312.196-.312 2.382 1.405 8.16 4.725 2.421 1.406c.117.078.235.078.352.078s.234 0 .351-.078l2.421-1.406 8.161-4.725 2.42-1.405c.196-.157.352-.352.352-.625V96.271a1.01 1.01 0 0 0-.351-.625l-2.421-1.406-8.122-4.685-2.42-1.406a1.1 1.1 0 0 0-.352-.078 1.1 1.1 0 0 0-.352.078l-2.42 1.406-8.161 4.685-2.421 1.406c-.196.156-.352.39-.352.625v14.994c.04.234.156.468.352.625l-.196.312-.195.312a1.49 1.49 0 0 1-.703-1.249V96.232c0-.508.274-.977.703-1.25l2.421-1.406 8.16-4.685 2.422-1.406c.234-.117.468-.195.703-.195.234.117.468.156.703.273"/><path fill="#98A2B3" d="M55.03 115.677c-6.56-6.56-6.56-17.22 0-23.78s17.22-6.56 23.78 0 6.56 17.22 0 23.78c-6.56 6.599-17.22 6.599-23.78 0m23.233-.507c6.248-6.248 6.209-16.4-.038-22.648-6.248-6.247-16.4-6.208-22.648.04-6.209 6.247-6.209 16.36 0 22.608 6.248 6.247 16.4 6.286 22.686 0"/><rect width="102.085" height="102.085" x="110.958" y="52.958" fill="#F1F4FA" rx="15.313"/><path fill="#325FE8" d="M164.146 107.69c.081.164.324.164.324 0l5.678-14.912c.244-.738.974-1.147 1.704-1.147h5.272c.974 0 1.866.82 1.866 1.802 0 .246 0 .41-.081.656l-12.817 34.823c0 .082-.405.41-.73.656-.081.082-.243.082-.405.082-.487-.164-.974-.574-1.136-1.065l-6.814-16.634c-.243-.491-.811-.737-1.298-.491-.162.082-.405.245-.486.491l-8.599 17.289c-.081.082-.162.164-.243.082-.081 0-.081-.082-.081-.082l-13.385-35.233c-.324-.983.081-2.049 1.055-2.376.243-.082.405-.164.649-.164h5.759c.73 0 1.46.491 1.704 1.147l5.678 14.995c.081.163.324.163.324 0l7.139-15.65c.243-.492.811-.738 1.297-.492a.73.73 0 0 1 .487.491zm22.849-30.315c-.081-.246-.487-.246-.568 0-.324 1.638-1.054 4.097-2.352 5.407-1.298 1.312-3.732 2.049-5.354 2.377-.243.082-.243.491 0 .573 1.622.328 4.056 1.065 5.354 2.376 1.703 1.721 2.271 4.097 2.515 5.49 0 .082.324.082.324 0 .324-1.475.973-4.097 2.352-5.49 1.298-1.31 3.732-2.048 5.354-2.376.244-.082.244-.491 0-.573-1.622-.328-4.056-1.065-5.354-2.377-1.216-1.31-1.946-3.769-2.271-5.407"/><rect width="78" height="78" x="218.119" y="65" fill="#F1F4FA" rx="11.515"/><g style="mix-blend-mode:luminosity"><path fill="#98A2B3" d="M257.113 77.84c14.001 0 21.04 7.608 21.04 7.608s.806 5.633.291 16.972c-.775 17.132-21.327 27.419-21.329 27.419 0 0-20.551-10.29-21.328-27.419-.513-11.339.292-16.972.292-16.972s7.033-7.609 21.034-7.609"/><path fill="#F1F4FA" d="M246.749 100.406c0-6.17 4.65-11.19 10.367-11.19 5.716 0 10.375 4.88 10.375 10.88 0 4.791-3.926 8.731-6.953 10.757 1.174.702 3.766 1.441 6.247 1.678 3.623-2.941 5.831-7.483 5.831-12.435 0-8.963-6.953-16.257-15.502-16.257-8.55 0-15.498 7.296-15.498 16.26 0 5.412 2.149 10.223 6.216 13.907 3.802 3.445 9.363 5.745 15.696 6.833 1.372-.795 3.718-3.142 4.597-4.515-5.288-.714-10.294-2.067-13.648-3.912-5.126-2.822-7.726-6.861-7.726-12.008"/></g></svg>
